X: 20483
Q: "With spirit."
M: C
L: 1/16
K: D
dB |\
d3ef2a2 e2f2d2B2 |
f3de3B d2A2B2F2 | EEE2 F3A {A}B4 B2 |]\
fg |\
a2d2f2d2 a2d2 d2fg | a2d2f2d2 a4 a2fa |
b2e2g2e2 b2e2 e2dB | d3e {de}f2ed B4 A2B2 |\
d3ef2a2 e2f2d2B2 | A3FD3F A3Bd2e2 |\
f3de3B d2A2B2F2 | EEE2 F3A {A}B4 B2 |]


